X:1
T:Resignation (Hurndall), 88.84
T:Resignation (Hurndall), 88.84
T:William Flavel Hurndall (1830–1888)
T:Public Domain Courtesy of the Cyber Hymnal™
C:William Flavel Hurndall (1830–1888)
Z:Public Domain
Z:Courtesy of the Cyber Hymnal™
%%score ( 1 2 ) ( 3 4 )
L:1/8
Q:1/4=130
M:3/4
K:D
V:1 treble 
V:2 treble 
V:3 bass 
V:4 bass 
V:1
 [FA]2 | [Fd]4 [Ac]2 | [GB]4 [FA]2 | [EG]4 [EA]2 | [DF]6 | [^DF]2 [EG]2 [FA]2 | [GB]4 [DA]2 | %7
 A4 [D^G]2 | [CA]4 [EA]2 | e4 [Fd]2 | ([Gc]2 [EA]2) [DG]2 | [DG]4 [EA]2 | [DF]6 | [^DF]6 | [EG]6 | %15
 [CE]6 | D6 |] %17
V:2
 x2 | x6 | x6 | x6 | x6 | x6 | x6 | (B,2 C2) x2 | x6 | (E2 G2) x2 | x6 | x6 | x6 | x6 | x6 | x6 | %16
 D6 |] %17
V:3
 [D,A,]2 | [D,A,]4 [D,A,]2 | (B,2 C2) [D,D]2 | B,4 [C,A,]2 | [D,A,]6 | [B,,B,]2 [E,B,]2 [D,=D]2 | %6
 [G,D]4 [F,A,]2 | [E,E]4 [E,B,]2 | [A,,A,]4 [A,C]2 | [A,C]4 [A,D]2 | (E2 D2) [A,,C]2 | %11
 [B,,B,]4 [C,A,]2 | [D,A,]6 | [B,,B,]6 | [E,B,]6 | (A,4 G,2) | [D,F,]6 |] %17
V:4
 x2 | x6 | D,4 x2 | E,2 D,2 x2 | x6 | x6 | x6 | x6 | x6 | x6 | A,4 x2 | x6 | x6 | x6 | x6 | A,,6 | %16
 x6 |] %17

